tools/download-figma-icons/icons/outlined-medium/megaphone.svg

<svg width="24" height="24" viewBox="0 0 24 24" fill="none" xmlns="http://www.w3.org/2000/svg">
<path fill-rule="evenodd" clip-rule="evenodd" d="M8.20522 13.6408L15.0632 16.6355L15.1899 6.37185L8.26147 9.19633L8.23447 11.3856L8.20522 13.6408ZM2.605 18.4648L4.13274 18.4843L5.76098 14.8588L4.23399 14.8393L2.605 18.4648ZM1.50176 11.2618L1.50026 11.4081C1.49351 11.9166 1.68476 12.3951 2.03876 12.7573C2.392 13.1203 2.866 13.3228 3.373 13.3296L3.7495 13.3341H3.751H3.76075L6.70898 13.3701L6.73448 11.3623L6.75773 9.43032L3.421 9.38907H3.39625C2.362 9.38907 1.51526 10.2238 1.50176 11.2618ZM15.6707 4.55686C15.9032 4.46086 16.1679 4.48861 16.3764 4.63111C16.5834 4.77286 16.7064 5.00835 16.7042 5.26035L16.5489 17.7845C16.5467 18.0358 16.4177 18.269 16.2054 18.4048C16.0824 18.485 15.9414 18.5255 15.7989 18.5255C15.6977 18.5255 15.5949 18.5045 15.4989 18.4625L7.37948 14.9166L5.29899 19.5478C5.17824 19.817 4.91049 19.9903 4.61499 19.9903H4.60599L1.44251 19.9513C1.18976 19.9483 0.955763 19.8178 0.820013 19.6048C0.683514 19.3918 0.664014 19.124 0.767514 18.8938L2.63425 14.7396C1.11101 14.3878 -0.0199822 13.0153 0.000267659 11.3916L0.00176765 11.2453C0.0250175 9.38458 1.54451 7.88909 3.39625 7.88909H3.43975L7.37573 7.93709L15.6707 4.55686ZM19.2427 10.8052L23.2597 10.8539C23.6737 10.8592 24.0052 11.1989 23.9999 11.6137C23.9947 12.0247 23.6602 12.3539 23.2499 12.3539H23.2409L19.2232 12.3052C18.8092 12.2999 18.4777 11.9602 18.483 11.5454C18.4882 11.1344 18.8227 10.8052 19.2329 10.8052H19.2427ZM18.6366 9.28649C18.7304 9.28649 18.8264 9.26924 18.9186 9.23174L22.8688 7.63125C23.2521 7.476 23.4366 7.03875 23.2813 6.654C23.1253 6.27075 22.6873 6.08475 22.3048 6.24075L18.3546 7.84124C17.9706 7.99649 17.7861 8.43374 17.9414 8.81849C18.0591 9.11024 18.3404 9.28649 18.6366 9.28649ZM18.8606 13.869L22.7704 15.5663C23.1499 15.7313 23.3246 16.173 23.1596 16.5525C23.0366 16.8353 22.7606 17.004 22.4711 17.004C22.3714 17.004 22.2701 16.9845 22.1726 16.9418L18.2629 15.2445C17.8834 15.0803 17.7087 14.6385 17.8744 14.2583C18.0379 13.878 18.4781 13.7025 18.8606 13.869Z" fill="black"/>
</svg>

<svg width="24" height="24" viewBox="0 0 24 24" fill="none" xmlns="http://www.w3.org/2000/svg"><path fill-rule="evenodd" clip-rule="evenodd" d="m8.205 13.64 6.858 2.995.127-10.263-6.93 2.824-.027 2.19-.029 2.255Zm-5.6 4.825 1.528.02 1.628-3.626-1.527-.02-1.629 3.626Zm-1.103-7.203-.002.146a1.88 1.88 0 0 0 .539 1.35c.353.362.827.565 1.334.572l.376.004h.012l2.948.036.025-2.008.024-1.932-3.337-.04h-.025a1.898 1.898 0 0 0-1.894 1.872ZM15.67 4.557a.745.745 0 0 1 .705.074c.207.142.33.377.328.63l-.155 12.524a.744.744 0 0 1-.344.62.743.743 0 0 1-.706.057l-8.12-3.545-2.08 4.63a.75.75 0 0 1-.684.443h-.009l-3.163-.039a.749.749 0 0 1-.675-1.057l1.866-4.154A3.4 3.4 0 0 1 0 11.392l.002-.147A3.4 3.4 0 0 1 3.396 7.89h.044l3.936.048 8.295-3.38Zm3.572 6.248 4.017.049a.75.75 0 0 1-.01 1.5h-.01l-4.017-.049a.75.75 0 0 1 .01-1.5h.01Zm-.606-1.519c.093 0 .19-.017.282-.054l3.95-1.6a.75.75 0 0 0-.564-1.391l-3.95 1.6a.75.75 0 0 0 .282 1.445Zm.224 4.583 3.91 1.697a.75.75 0 1 1-.598 1.376l-3.91-1.697a.749.749 0 0 1-.389-.987.747.747 0 0 1 .987-.389Z" fill="currentColor"/></svg>
